X: 47
T: POLKAS: We Won't Go Home Set
T: We Won't Go Home Til' Morning
C: C: Trad.; S: Brendan & Séamus Begley
C: Set Leaders: Tania, Anton, Sophie
Z: Anton Zille ed., Oleg Naumov arr.; ceolachan / Alistair Cassidy / Northcregg at The Session
N: https://thesession.org/members/26966/sets/92029
R: Polka
M: 2/4
L: 1/8
Q: 1/4=140
K: Dmaj
A,|:"D"D>E FG|"D"Ad A2|"G"BG G>B|"A"cA Ad|
"D"D>E FG|"D"Ad A/B/A/G/|"G"FA "A"GE|1 "D"D2 DA,:|2 "D"D2 D2||
|:"D"dA AB/c/|"D"dA A2|"G"BG G>B|"A"cA A2|
"D"dA AB/c/|"D"dA A/B/A/G/|"G"FA "A"GE|1 "D"D2 DB/c/:|2 "D"D2 D2||
T: Neilí / Ó Neilí, Neilí an Fuacht
K: Amix
|:"A"ed cA|"A"ed cA|"A"Ac ef|"G"ge dc|
"A"ed cA|"A"ed cA|"A"Ac ef|"G"ge d2:||
|:"A"ef ge|"A"ed cA|"A"ef ge|"G"eA d2|
"A"ef ge|"A"ed cA|"G"Ac ef|1 "Em"ge d2:|2 "Em"ge ag||
|:"D"f2 fg|"A"ed cA|"D"f2 fg|"G"ec "A"de|
"D"f2 fg|"A"ed "G"cA|"Asus4"Ac ef|"Asus4"ge "G"d2:||
T: Kerry Cow
K: Dmaj
|:"D"A>B AG|"D"FA dF|"G"G>A GF|"A"EF G/F/E|
"D"A>B AG|"D"FA de/d/|"G"cA "A"GE|1 "D"D2 DB:|2 "D"D2 DA||
"D"d>e fd|"D"cA A2|"G"BG GA/B/|"A"cA A2|
"D"d>e fd|"D"cA Ad|"G"BG "A"AF|"D"D2 DB/c/|
"D"d>e fd|"D"cA Ad|"G"BG GA/B/|"A"cA AB/c/|
"D"d>e fd|"D"cA AB|"G"BA "A"GE|"D"DA AB||

